!!!!SEGMENT: pl-gd--ee-1638--007-005_marenzio-luca--il-terzo-libro-de-madrigalia-a-sei-voci-ella-che-se-n-accorse.krn
!!!cenid: 15xx:846
!!!COM: Marenzio, Luca
!!!COM-rismID: pe30003955
!!!CDT: ~1553-1599/08/22
!!!CNT: Italian
!!!GTL: Il Terzo Libro de madrigalia a sei voci
!!!OTL: Ella che se n'accorse
!!!OMV: 005
!!!PDT: 1585
!!!AGN:
!!!SMS-siglum: PL-GD
!!!SMS-shelfmark: Ee 1638
!!!SMS-variant:
!!!SMS-altvar:
!!!SMS-shelfwork: 007-005 G
!!!NIFC-rismSourceID: 1001202747
!!!NIFC-rismChildID: 990039250
!!!NIFC-islandoraID: pl-gd:57883
!!!URL-pdf-islandora: https://repozytorium.nifc.pl/islandora/object/pl-gd%3A57883/datastream/PDF/view
!!!URL-scan: https://polish.musicsources.pl/pl/lokalizacje/galeria/klocki-introligatorskie/655 @EN{Scan on Polish Music Sources Website} @PL{Skany w portalu Dziedzictwo Muzyki Polskiej w otwartym dostępie}
!!!ONB-nifc: UWAGA: zbiór na stronach: Canto: s. 694-704, Alto: s. 542-552, Tenore: s. 390-400, Basso: s. 237-248, Quinto: s. 85-96, Sesto: s. 3-14. Uwaga: utwory podzielone wg tytułów w spisach treści dostępnych na końcu każdej księgi głosowej.
!!!AIN: 1 alto 1 bass 2 soprn 2 tenor
!!!key: a:aeo
**kern	**text	**kern	**text	**kern	**text	**kern	**text	**kern	**text	**kern	**text
*part6	*part6	*part5	*part5	*part4	*part4	*part3	*part3	*part2	*part2	*part1	*part1
*staff6	*staff6	*staff5	*staff5	*staff4	*staff4	*staff3	*staff3	*staff2	*staff2	*staff1	*staff1
*I"SESTO	*	*I"QVINTO	*	*I"BASSO	*	*I"TENORE	*	*I"ALTO	*	*I"CANTO	*
*I'voce umana 2	*	*I'voce umana 1	*	*I'B	*	*I'T	*	*I'A	*	*I'S	*
*Itenor	*	*Isoprn	*	*Ibass	*	*Itenor	*	*Ialto	*	*Isoprn	*
*ICvox	*	*ICvox	*	*ICvox	*	*ICvox	*	*Cvox	*	*ICvox	*
*clefC4	*	*clefC4	*	*clefF4	*	*clefC4	*	*clefC3	*	*clefC1	*
*k[]	*	*k[]	*	*k[]	*	*k[]	*	*k[]	*	*k[]	*
*a:aeo	*	*a:aeo	*	*a:aeo	*	*a:aeo	*	*a:aeo	*	*a:aeo	*
*M2/1	*	*M2/1	*	*M2/1	*	*M2/1	*	*M2/1	*	*M2/1	*
*met(c)	*	*met(c)	*	*	*	*	*	*	*	*	*
=1-	=1-	=1-	=1-	=1-	=1-	=1-	=1-	=1-	=1-	=1-	=1-
!	!	!LO:TX:b:t=ELla	!	!	!	!	!	!	!	!	!
!	!	!LO:TX:a:t=Seconda parte.	!	!	!	!	!	!	!	!	!
*	*	*	*	*met(c)	*	*	*	*	*	*	*
!	!	!	!	!LO:TX:a:t=Secondaparte.	!	!	!	!	!	!	!
*	*	*	*	*	*	*met(c)	*	*	*	*	*
!	!	!	!	!	!	!LO:TX:b:t=ELla	!	!	!	!	!
!	!	!	!	!	!	!LO:TX:a:t=Secondaparte.	!	!	!	!	!
*	*	*	*	*	*	*	*	*met(c)	*	*	*
!	!	!	!	!	!	!	!	!LO:TX:a:t=Secondaparte.	!	!	!
*	*	*	*	*	*	*	*	*	*	*met(c)	*
!	!	!	!	!	!	!	!	!	!	!LO:TX:a:t=Secondaparte.	!
1c#X	EL-	0r	.	1A	El-	0r	.	1e	EL-	1a	EL-
1d	-la	.	.	1D	-la	.	.	1f	-la	1a	-la
=2-	=2-	=2-	=2-	=2-	=2-	=2-	=2-	=2-	=2-	=2-	=2-
0r	.	1r	.	4D\	Che	4d\	Che	2r	.	2r	.
.	.	.	.	8E\	ſe	8G/	ſe	.	.	.	.
.	.	.	.	8F\	n`ac-	8A/	n`ac-	.	.	.	.
.	.	.	.	4G\	-cor-	4B\	-cor-	4d\	che	4dd\	che
.	.	.	.	4G\	ſe	4B\	ſe	8e\	ſe	8g\	ſe
.	.	.	.	.	.	.	.	8f\	n`ac-	8a\	n`ac-
.	.	2r	.	2r	.	2r	.	4g\	-cor-	4b\	-cor-
.	.	.	.	.	.	.	.	4g\	ſe	4b\	ſe
.	.	1B\	I	1G\	u	1d\	u	2r	.	2r	.
=3-	=3-	=3-	=3-	=3-	=3-	=3-	=3-	=3-	=3-	=3-	=3-
2G/	I	.	.	.	.	.	.	0r	.	0r	.
1G#X	dol-	1B	dol-	1E	do`-	1e	do`-	.	.	.	.
2A/	-ci	2E/	-ci	2C#X/	-ci	2e\	-ci	.	.	.	.
=4-	=4-	=4-	=4-	=4-	=4-	=4-	=4-	=4-	=4-	=4-	=4-
1F	ra-	1A	ra-	1D	ra-	1d	ra-	0r	.	0r	.
2E/	-i	2A/	-i	2AA/	-i	2c#X\	-i	.	.	.	.
2.F/	Chiu-	2.A/	Chiu-	2.D/	Chiu-	2.d\	Chiu-	.	.	.	.
=5-	=5-	=5-	=5-	=5-	=5-	=5-	=5-	=5-	=5-	=5-	=5-
.	.	.	.	.	.	.	.	0r	.	0r	.
!	!	!	!	!LO:SIC:v:t=custos C	!	!LO:SIC:v:t=custos e	!	!	!	!	!
4F/	ſe	4A/	ſe	4D/	ſe	4d\	ſe	.	.	.	.
!	!	!	!	!LO:LB:g=original	!	!	!	!	!	!	!
!	!	!	!	!	!	!LO:LB:g=original	!	!	!	!	!
2E/	pie-	2A/	pie-	2Cny/	pie-	2e\	pie-	.	.	.	.
1F	-to-	1B-X	-toſa	1BB-X	-toſa	1d	-to-	.	.	.	.
=6-	=6-	=6-	=6-	=6-	=6-	=6-	=6-	=6-	=6-	=6-	=6-
2F/	-ſa	2A\	in	4FF/	in	4.cny\	-ſa	0r	.	0r	.
.	.	.	.	2F\	lan-	.	.	.	.	.	.
.	.	.	.	.	.	8B\	.	.	.	.	.
2r	.	4.c\	lan-	.	.	2A\	.	.	.	.	.
.	.	.	.	4E\	-gui-	.	.	.	.	.	.
.	.	8c\	-gui-	.	.	.	.	.	.	.	.
!LO:SIC:v:t=custos d	!	!	!	!	!	!	!	!	!	!	!
!	!	!LO:LB:g=original	!	!	!	!	!	!	!	!	!
2A/	in	4d\	-det-	4D/	-det-	4r	.	.	.	.	.
.	.	4e\	-ti	4C#X/	-ti	2A/	in	.	.	.	.
!LO:LB:g=original	!	!	!	!	!	!	!	!	!	!	!
2.d\	lan-	2f\	gi-	2D/	gi-	.	.	.	.	.	.
.	.	.	.	.	.	2Bn\	lan-	.	.	.	.
=7-	=7-	=7-	=7-	=7-	=7-	=7-	=7-	=7-	=7-	=7-	=7-
.	.	0.e	-ri	0E	-ri	.	.	0r	.	0r	.
4cny\	-gui-	.	.	.	.	4A/	-gui-	.	.	.	.
4B\	-det-	.	.	.	.	4G/	-det-	.	.	.	.
4A\	-ti	.	.	.	.	4F#X/	-ti	.	.	.	.
4B\	gi-	.	.	.	.	4G#X/	gi-	.	.	.	.
4c\	.	.	.	.	.	2A/	.	.	.	.	.
2B\	.	.	.	.	.	.	.	.	.	.	.
.	.	.	.	.	.	4G#X/	.	.	.	.	.
=8-	=8-	=8-	=8-	=8-	=8-	=8-	=8-	=8-	=8-	=8-	=8-
1c#X	-ri	.	.	2r	.	1A	-ri	2r	.	2r	.
.	.	.	.	1AA	Poi	.	.	1e	Poi	1a	Poi
2c#\	Poi	2r	.	.	.	1A	Poi	.	.	.	.
1d\	diſ-	2A/	Poi	1D\	diſ-	.	.	1f\	diſ-	1a\	diſ-
=9-	=9-	=9-	=9-	=9-	=9-	=9-	=9-	=9-	=9-	=9-	=9-
.	.	2A/	diſ-	.	.	2D/	diſ-	.	-ſe	.	-ſe
2B\	-ſe a	2G/	-ſe a	2GG/	-ſe a	2D/	-ſe a	2g\	a	2bn\	a
4cny\	me	1G	me	1Cny	me	4E/	me	2e\	me	2g/	me
4e\	cor	.	.	.	.	4c\	cor	.	.	.	.
!	!	!	!	!	!	!LO:SIC:v:t=custos e	!	!	!	!	!
2e\	mio	.	.	.	.	2c\	mio	4r	.	4r	.
!	!	!	!	!	!	!	!	!LO:SIC:v:t=custos c	!	!LO:SIC:v:t=custos e	!
.	.	.	.	.	.	.	.	4c/	cor	4e/	cor
=10-	=10-	=10-	=10-	=10-	=10-	=10-	=10-	=10-	=10-	=10-	=10-
!	!	!	!	!	!	!LO:LB:g=original	!	!	!	!	!
!	!	!	!	!	!	!	!	!LO:LB:g=original	!	!	!
!	!	!	!	!	!	!	!	!	!	!LO:LB:g=original	!
4r	.	4r	.	4r	.	4r	.	2c/	mio	2e/	mio
4c\	cor	4G/	cor	4C/	cor	4e\	cor	.	.	.	.
2c\	mio	2G/	mio	2C/	mio	2e\	mio	4r	.	4r	.
.	.	.	.	.	.	.	.	4e\	/cor	4g/	/cor
4r	.	2r	.	4r	.	4r	.	2e\	mio/	2g/	mio/
4Gny/	/cor	.	.	4E\	/cor	4B\	/cor	.	.	.	.
!LO:SIC:v:t=custos E	!	!	!	!	!	!	!	!	!	!	!
2G/	mio/	4r	.	2E\	mio/	2e\	mio/	4r	.	4r	.
.	.	4G/	/cor	.	.	.	.	4g\	cor	4b\	cor
=11-	=11-	=11-	=11-	=11-	=11-	=11-	=11-	=11-	=11-	=11-	=11-
!LO:LB:g=original	!	!	!	!	!	!	!	!	!	!	!
2r	.	2G/	mio/	4r	.	4r	.	4.g\	mio	2.b\	mio
!	!	!	!	!LO:SIC:v:t=custos G	!	!	!	!	!	!	!
.	.	.	.	4G\	cor	4d\	cor	.	.	.	.
.	.	.	.	.	.	.	.	16f\	.	.	.
.	.	.	.	.	.	.	.	16e\	.	.	.
!	!	!	!	!LO:LB:g=original	!	!	!	!	!	!	!
4r	.	4r	.	4G\	mio	4B\	mio	4d\	.	.	.
4.E/	laſ-	4.e\	laſ-	4.C/	laſ-	4.Gny/	laſ-	4.c\	laſ-	4.ee\	laſ-
8G/	-cia	8Bny\	-cia	8GG/	-cia	8B\	-cia	8d\	-cia	8dd\	-cia
4E/	c`ho-	4e\	c`ho-	4AA/	c`ho-	4A/	c`ho-	4a\	c`ho-	4cc\	c`ho-
2E/	-ma-	4e\	-ma-	2E\	-ma-	4B\	-ma-	2g#X\	-ma-	2b\	-ma-
!	!	!LO:SIC:v:t=custos c	!	!	!	!	!	!	!	!	!
.	.	4B\	i	.	.	4e\	-i	.	.	.	.
=12-	=12-	=12-	=12-	=12-	=12-	=12-	=12-	=12-	=12-	=12-	=12-
!	!	!LO:LB:g=original	!	!	!	!	!	!	!	!	!
2e\	i	0r	.	4E\	i	4r	.	4g#\	-i	4b\	-i
.	.	.	.	4.A\	L`a-	4.e\	L`a-	4.a\	L`a-	4.cc#X\	L`a-
2r	.	.	.	.	.	.	.	.	.	.	.
.	.	.	.	8A\	-ni-	8e\	-ni-	8a\	-ni-	8cc#\	-ni-
.	.	.	.	4F#X\	-ma	4A/	-ma	4a\	-ma	4dd\	-ma
1r	.	.	.	2G\	tua	2d\	tua	2gny\	tua	2b\	tua
.	.	.	.	4D/	ne	4d\	ne	4f\	ne	4a\	ne
.	.	.	.	2A\	la	2e\	la	2a\	la	2cc#\	la
=13-	=13-	=13-	=13-	=13-	=13-	=13-	=13-	=13-	=13-	=13-	=13-
0r	.	0r	.	.	.	.	.	.	.	.	.
!	!	!	!	!	!	!LO:SIC:v:t=custos c	!	!LO:SIC:v:t=custos f	!	!	!
.	.	.	.	4E\	mia	4e\	mia	4g\	mia	4b\	mia
!	!	!	!	!	!	!LO:LB:g=original	!	!	!	!	!
!	!	!	!	!	!	!	!	!LO:LB:g=original	!	!	!
.	.	.	.	4F\	boc-	4c\	boc-	4f\	boc-	4a\	boc-
!	!	!	!	!	!	!	!	!	!	!LO:SIC:v:t=custos f	!
.	.	.	.	4C/	-ca	4c\	-ca	4e\	-ca	4g\	-ca
!	!	!	!	!	!	!	!	!	!	!LO:LB:g=original	!
.	.	.	.	2D/	ſpi-	2A/	ſpi-	2d\	ſpi-	2f/	ſpi-
.	.	.	.	2AA/	-ri	2A/	-ri	2c#X/	-ri	2e/	-ri
=14-	=14-	=14-	=14-	=14-	=14-	=14-	=14-	=14-	=14-	=14-	=14-
1A	Poi	2r	.	2r	.	1r	.	2r	.	2r	.
.	.	1c#X	Poi	1AA	Poi	.	.	1e	poi	1a	poi
1A	diſ-	.	.	.	.	2r	.	.	.	.	.
.	.	1d\	diſ-	1D\	diſ-	2A/	Poi	1f#X\	diſ-	1a\	diſ-
=15-	=15-	=15-	=15-	=15-	=15-	=15-	=15-	=15-	=15-	=15-	=15-
1D	-ſe a	.	.	.	.	2A/	diſ-	.	-ſe	.	-ſe
!	!	!	!	!LO:SIC:v:t=custos C	!	!	!	!	!	!	!
.	.	2B\	-ſe a	2GG/	-ſe a	2G/	-ſe a	2g\	a	2b\	a
!	!	!	!	!LO:LB:g=original	!	!	!	!	!	!	!
4E/	me	4cny\	me	1C	me	1G	me	2e\	me	2g/	me
4c\	cor	4e\	cor	.	.	.	.	.	.	.	.
2c\	mio	2e\	mio	.	.	.	.	4r	.	4r	.
.	.	.	.	.	.	.	.	4cny/	cor	4e/	cor
=16-	=16-	=16-	=16-	=16-	=16-	=16-	=16-	=16-	=16-	=16-	=16-
4r	.	4r	.	4r	.	4r	.	2c/	mio	2e/	mio
4e\	cor	4c\	cor	4C/	cor	4G/	cor	.	.	.	.
2e\	mio	2c\	mio	2C/	mio	2G/	mio	4r	.	4r	.
.	.	.	.	.	.	.	.	4e\	/cor	4g/	/cor
4r	.	4r	.	4r	.	2r	.	2e\	mio/	2g/	mio/
4B\	/cor	4G/	/cor	4E\	/cor	.	.	.	.	.	.
2e\	mio/	2G/	mio/	2E\	mio/	4r	.	4r	.	4r	.
.	.	.	.	.	.	4G/	/cor	4g\	cor	4b\	cor
=17-	=17-	=17-	=17-	=17-	=17-	=17-	=17-	=17-	=17-	=17-	=17-
4r	.	2r	.	4r	.	2G/	mio/	4.g\	mio	2.b\	mio
4d\	cor	.	.	4G\	cor	.	.	.	.	.	.
.	.	.	.	.	.	.	.	16fny\	.	.	.
.	.	.	.	.	.	.	.	16e\	.	.	.
4B\	mio	4r	.	4G\	mio	4r	.	4d\	.	.	.
4.G/	laſ-	4.E/	laſ-	4.C/	laſ-	4.e\	laſ-	4.c\	laſ-	4.ee\	laſ-
8B\	-cia	8G/	-cia	8GG/	-cia	8B\	-cia	8d\	-cia	8dd\	-cia
4A/	c`ho-	4E/	c`ho-	4AA/	c`ho-	4e\	c`ho-	4a\	c`ho-	4ccny\	c`ho-
!	!	!LO:SIC:v:t=custos e	!	!	!	!	!	!	!	!	!
!	!	!	!	!	!	!	!	!LO:LB:g=original	!	!	!
4B\	-ma-	2E/	-ma-	2E\	-ma-	4e\	-ma-	2g#X\	-ma-	2b\	-ma-
!	!	!	!	!	!	!LO:SIC:v:t=custos A	!	!	!	!	!
4e\	-i	.	.	.	.	4B\	-i	.	.	.	.
=18-	=18-	=18-	=18-	=18-	=18-	=18-	=18-	=18-	=18-	=18-	=18-
!	!	!	!	!	!	!	!	!	!	!LO:SIC:v:t=custos cc	!
!	!	!LO:LB:g=original	!	!	!	!	!	!	!	!	!
!	!	!	!	!	!	!LO:LB:g=original	!	!	!	!	!
4r	.	2e\	-i	4E\	-i	0r	.	4g#\	-i	4b\	-a
!	!	!	!	!	!	!	!	!	!	!LO:LB:g=original	!
4.e\	L`a-	.	.	4.A\	L`a-	.	.	4.a\	L`a-	4.cc#X\	L`a-
.	.	2r	.	.	.	.	.	.	.	.	.
8e\	-ni-	.	.	8A\	-ni-	.	.	8a\	-ni-	8cc#\	-ni-
4A/	-ma	.	.	4F#X\	-ma	.	.	4a\	-ma	4dd\	-ma
2d\	tua	1r	.	2G\	tua	.	.	2gny\	tua	2b\	tua
4d\	ne	.	.	4D\	ne	.	.	4f\	ne	4a\	ne
2e\	la	.	.	2A\	la	.	.	2a\	la	2cc#\	la
=19-	=19-	=19-	=19-	=19-	=19-	=19-	=19-	=19-	=19-	=19-	=19-
!	!	!	!	!LO:SIC:v:t=custos E	!	!	!	!	!	!	!
.	.	1r	.	.	.	1r	.	.	.	.	.
!	!	!	!	!LO:LB:g=original	!	!	!	!	!	!	!
4e\	mia	.	.	4E\	mia	.	.	4g\	mia	4b\	mia
4c\	boc-	.	.	4Fny\	boc-	.	.	4f\	boc-	4a\	boc-
4c\	-ca	.	.	4C/	-ca	.	.	4e\	-ca	4g\	-ca
2A/	ſpi-	2r	.	2D/	ſpi-	2r	.	2d\	ſpi-	2f/	ſpi-
2A/	-ri	4r	.	1AA/	-ri	4r	.	2c/	-ri	2e/	-ri
.	.	4e\	ne	.	.	4A\	ne	.	.	.	.
=20-	=20-	=20-	=20-	=20-	=20-	=20-	=20-	=20-	=20-	=20-	=20-
2r	.	4.c\	la	.	.	4.e\	la	2r	.	4r	.
.	.	.	.	.	.	.	.	.	.	4a\	ne
.	.	8B\	mia	.	.	8d\	mia	.	.	.	.
4r	.	4A/	boc-	4AA/	ne-	4c\	boc-	2e\	ne	2.ee\	la
!LO:SIC:v:t=custos B	!	!	!	!	!	!	!	!	!	!	!
4E/	ne-	4G/	-ca	2E\	-la	4B\	-ca	.	.	.	.
!LO:LB:g=original	!	!	!	!	!	!	!	!	!	!	!
4.B\	-la	1r	.	.	.	1G	ſpi-	4.g\	la	.	.
.	.	.	.	4BBny/	mia	.	.	.	.	4dd\	mia
8A/	mia	.	.	.	.	.	.	8f\	mia	.	.
4G/	boc-	.	.	4C/	boc-	.	.	4e\	boc-	4ccny\	boc-
4B\	-ca	.	.	4GG/	-ca	.	.	4d\	-ca	4b\	-ca
=21-	=21-	=21-	=21-	=21-	=21-	=21-	=21-	=21-	=21-	=21-	=21-
1e	ſpi-	2r	.	1AA	ſpi-	00E	-ri.	1c	ſpi-	1a	ſpi-
.	.	1A	ſpi-	.	.	.	.	.	.	.	.
0.e	-ri.	.	.	0.E	-ri.	.	.	0.B	-ri.	0.b	-ri.
.	.	4G#X/	.	.	.	.	.	.	.	.	.
.	.	4F#X/	.	.	.	.	.	.	.	.	.
=22-	=22-	=22-	=22-	=22-	=22-	=22-	=22-	=22-	=22-	=22-	=22-
.	.	0G#X	-ri.	.	.	.	.	.	.	.	.
=-	=-	=-	=-	=-	=-	=-	=-	=-	=-	=-	=-
*-	*-	*-	*-	*-	*-	*-	*-	*-	*-	*-	*-
!!!system-decoration: [(s1,s2,s3,s4,s5,s6)]
!!!ENC: Filip Voros
!!!END: 2022-06-11
!!!ENC: Urszula Świątek
!!!END: 2022-07-22
!!!YEC: Copyright 2022 Narodowy Instytut Fryderyka Chopina (https://polishscores.org)
!!!YEM: License CC-BY-4.0 (https://creativecommons.org/licenses/by/4.0)
